X:1
T:Detroit (Hastings), SM
T:Detroit (Hastings), SM
T:E. P .Hastings, 1868
T:Public Domain Courtesy of the Cyber Hymnal™
C:E. P .Hastings, 1868
Z:Public Domain
Z:Courtesy of the Cyber Hymnal™
%%score ( 1 2 ) ( 3 4 )
L:1/8
Q:1/2=98
M:2/2
K:F
V:1 treble 
V:2 treble 
V:3 bass 
V:4 bass 
V:1
 [FA]4 [FA]2 [GB]2 | [FA]4 [EG]4 | [FA]8 | [Fc]4 [Fc]2 [Fc]2 | [Ec]4 =B4 | [Ec]8 | %6
 [Fc]4 [Fc]2 [Fc]2 | [Fd]4 [Fc]4 | B4 [FA]4 | [EG]8 | [Fc]4 [EB]2 [FA]2 | [GA]4 [EG]4 | F8 |] %13
V:2
 x8 | x8 | x8 | x8 | x4 (D2 F2) | x8 | x8 | x8 | (F2 E2) x4 | x8 | x8 | x8 | F8 |] %13
V:3
 [F,C]4 [F,C]2 [B,,D]2 | [C,C]4 [C,C]4 | [F,C]8 | [F,A,]4 [F,A,]2 [D,A,]2 | G,4 [G,,G,]4 | %5
 [C,G,]8 | [F,A,]4 [F,A,]2 [F,A,]2 | B,4 [A,C]4 | (D2 C2) [F,C]4 | [C,C]8 | [A,C]4 [G,C]2 [F,C]2 | %11
 [B,,D]4 (D2 B,2) | [F,A,]8 |] %13
V:4
 x8 | x8 | x8 | x8 | G,4 x4 | x8 | x8 | B,4 x4 | G,4 x4 | x8 | x8 | x4 C,4 | x8 |] %13

